X:55
T: Garry Owen
M: 6/8
L: 1/8
R: jig
K: Dmaj
dc |: "D" BAG FED |FGF Fdc |BAG FED |"A" EFE Edc |
"D" BAG FED |FGF F2 G |ABc dAF |1 "G" EFE E dc :|2 "G" EFE EFG ||
|: "D" A2 F A2 F |A2 F Adc | "G" B2 G B2 G |B2 G B2 c |
"D" d2 e f2 e |dcB AFG |ABc dAF |1 "A" EFE EFG :|2 "A" EFE "D" D3 |]

